X:719
T:Rakes of Kildare
S:Sessions
Z:Nigel Gatherer
M:6/8
L:1/8
K:Ador
E | EAA AGA | Bcd e2f | gfg ege | dBG G2 
A | EAA AGA | Bcd e2f | gfg edB | A3  A2 :|
a | aea aea | aea b2a | gfg ege | dBG G2 
a | aea aea | aea b2a | gfg edB | A3  A2 
a | aea aea | aea b2a | gfg ege | dBG G2 
A | EAA AGA | Bcd e2f | gfg edB | A3  A2 ||
